X:211
T:Moving in Decency (reel)
B:CRE2.252 (Bogadh Linn go MeasÃÂÃÂÃÂÃÂºil)
F:file ID: cre.2/211mov_dec
L:1/8
M:C
R:reel
Q:180
K:Em
FA|Beed B2ed|Beed B^cAG|FADA FADA|AFDF A2FA|
Bee/d/e B2ed|Beed B^cAF|GFGA BGdB|AGFG E2:|
Bd|e3f edBA|(3B^cd ef g2fe|d3e dAFA|d^cde f2ed|
edef edBA|Bdef gedB|GFGA BGdB|AGFG E2:|

%%%

